!!!OTL: MEINE KLEINE GARTENLAUBE
!!!ARE: Europa, Mitteleuropa, Deutschland
!!!SCT: B0407
!!!YEM: Copyright 1995, estate of Helmut Schaffrath.
**kern
*ICvox
*Ivox
*M3/8
*k[f#]
*G:
=1
{8b
8a
8g
=2
8g
8f#
8g
=3
8f#
8e
8f#
=4
8a
8g
8g}
=5
{4a
8a
=6
4a
8a
=7
8a
8dd
8cc
=8
4b
8r}
=9
{8b
8a
8g
=10
8g
8f#
8g
=11
8f#
8e
8f#
=12
8a
8g
8g}
=13
{4a
8a
=14
4a
8a
=15
8a
8dd
8cc
=16
4b
8r}
=17
{4g
8a
=18
4b
8b
=19
8b
8a
8b
=20
8dd
8cc
8cc}
=21
{8cc
8b
8a
=22
4g
8b
=23
4dd
8f#
=24
4g
8r}
==
!!!AGN: Liebes - Lied, Liebes - Lust
!!!ONB: ESAC (Essen Associative Code) Database: BOEHME
!!!AMT: simple triple
!!!AIN: vox
!!!EED: Helmut Schaffrath
!!!EEV: 1.0
*-
